styles/icons/circle-radius-a01disabled.svg

<svg xmlns="http://www.w3.org/2000/svg" xmlns:xlink="http://www.w3.org/1999/xlink" width="24" height="24" viewBox="0 0 24 24">
  <defs>
    <path id="circle-radius-a01disabled-a" d="M12,21 C7.02943725,21 3,16.9705627 3,12 C3,7.02943725 7.02943725,3 12,3 C16.9705627,3 21,7.02943725 21,12 C21,16.9705627 16.9705627,21 12,21 Z M18,6.5 C18.2761424,6.5 18.5,6.27614237 18.5,6 C18.5,5.72385763 18.2761424,5.5 18,5.5 C17.7238576,5.5 17.5,5.72385763 17.5,6 C17.5,6.27614237 17.7238576,6.5 18,6.5 Z M12,12.5 C12.2761424,12.5 12.5,12.2761424 12.5,12 C12.5,11.7238576 12.2761424,11.5 12,11.5 C11.7238576,11.5 11.5,11.7238576 11.5,12 C11.5,12.2761424 11.7238576,12.5 12,12.5 Z"/>
    <path id="circle-radius-a01disabled-b" d="M17.4246946,7.38571273 L13.3857127,11.4246946 C13.4593491,11.6018583 13.5,11.7961819 13.5,12 C13.5,12.8284271 12.8284271,13.5 12,13.5 C11.1715729,13.5 10.5,12.8284271 10.5,12 C10.5,11.1715729 11.1715729,10.5 12,10.5 C12.2589263,10.5 12.5025298,10.565605 12.7150946,10.6810992 L16.6810992,6.71509457 C16.565605,6.50252976 16.5,6.25892631 16.5,6 C16.5,5.80786448 16.5361243,5.62416625 16.6019516,5.45532671 C15.3004006,4.53844505 13.7130806,4 12,4 C7.581722,4 4,7.581722 4,12 C4,16.418278 7.581722,20 12,20 C16.418278,20 20,16.418278 20,12 C20,10.2869194 19.461555,8.6995994 18.5446733,7.3980484 C18.3758338,7.46387567 18.1921355,7.5 18,7.5 C17.7961819,7.5 17.6018583,7.45934911 17.4246946,7.38571273 Z M17.258965,4.69552853 C17.4775571,4.57108461 17.7304772,4.5 18,4.5 C18.8284271,4.5 19.5,5.17157288 19.5,6 C19.5,6.26952281 19.4289154,6.52244292 19.3044715,6.74103504 C20.3713927,8.220342 21,10.0367615 21,12 C21,16.9705627 16.9705627,21 12,21 C7.02943725,21 3,16.9705627 3,12 C3,7.02943725 7.02943725,3 12,3 C13.9632385,3 15.779658,3.6286073 17.258965,4.69552853 Z M12,12.5 C12.2761424,12.5 12.5,12.2761424 12.5,12 C12.5,11.7238576 12.2761424,11.5 12,11.5 C11.7238576,11.5 11.5,11.7238576 11.5,12 C11.5,12.2761424 11.7238576,12.5 12,12.5 Z M18,6.5 C18.2761424,6.5 18.5,6.27614237 18.5,6 C18.5,5.72385763 18.2761424,5.5 18,5.5 C17.7238576,5.5 17.5,5.72385763 17.5,6 C17.5,6.27614237 17.7238576,6.5 18,6.5 Z"/>
  </defs>
  <g fill="none" fill-rule="evenodd" opacity=".3">
    <use fill="#333" opacity=".2" xlink:href="#circle-radius-a01disabled-a"/>
    <use fill="#333" fill-rule="nonzero" xlink:href="#circle-radius-a01disabled-b"/>
  </g>
</svg>

<svg height="24" width="24" viewBox="0 0 24 24" xmlns="http://www.w3.org/2000/svg">
    <path fill="#F3F3F3" d="M12,21c-5,0-9-4-9-9s4-9,9-9s9,4,9,9S17,21,12,21z M18,6.5c0.3,0,0.5-0.2,0.5-0.5S18.3,5.5,18,5.5S17.5,5.7,17.5,6S17.7,6.5,18,6.5z M12,12.5c0.3,0,0.5-0.2,0.5-0.5s-0.2-0.5-0.5-0.5s-0.5,0.2-0.5,0.5S11.7,12.5,12,12.5z"/>
    <path fill="#C2C2C2" d="M17.4,7.4l-4,4c0.1,0.2,0.1,0.4,0.1,0.6c0,0.8-0.7,1.5-1.5,1.5s-1.5-0.7-1.5-1.5s0.7-1.5,1.5-1.5c0.3,0,0.5,0.1,0.7,0.2l4-4c-0.1-0.2-0.2-0.5-0.2-0.7c0-0.2,0-0.4,0.1-0.5C15.3,4.5,13.7,4,12,4c-4.4,0-8,3.6-8,8s3.6,8,8,8s8-3.6,8-8c0-1.7-0.5-3.3-1.5-4.6c-0.2,0.1-0.4,0.1-0.5,0.1C17.8,7.5,17.6,7.5,17.4,7.4z M17.3,4.7c0.2-0.1,0.5-0.2,0.7-0.2c0.8,0,1.5,0.7,1.5,1.5c0,0.3-0.1,0.5-0.2,0.7C20.4,8.2,21,10,21,12c0,5-4,9-9,9s-9-4-9-9s4-9,9-9C14,3,15.8,3.6,17.3,4.7z M12,12.5c0.3,0,0.5-0.2,0.5-0.5s-0.2-0.5-0.5-0.5s-0.5,0.2-0.5,0.5S11.7,12.5,12,12.5z M18,6.5c0.3,0,0.5-0.2,0.5-0.5S18.3,5.5,18,5.5S17.5,5.7,17.5,6S17.7,6.5,18,6.5z"/>
</svg>
